svgs/sharp-light/cloud-snow.svg

<svg xmlns="http://www.w3.org/2000/svg" viewBox="0 0 512 512"><!--! Font Awesome Pro 6.6.0 by @fontawesome - https://fontawesome.com License - https://fontawesome.com/license (Commercial License) Copyright 2024 Fonticons, Inc. --><path d="M384 128l0 32 32 0c35.3 0 64 28.7 64 64l0 64-64 0L96 288l-64 0 0-64c0-27.8 17.8-51.6 42.7-60.4L96 156.1l0-22.6L96 112c0-44.2 35.8-80 80-80c27 0 50.9 13.4 65.5 34l17.8 25.2 25.9-16.9c10-6.5 22-10.3 34.9-10.3c35.3 0 64 28.7 64 64zM0 320l32 0 64 0 320 0 64 0 32 0 0-32 0-64c0-53-43-96-96-96c0-53-43-96-96-96c-19.3 0-37.3 5.7-52.4 15.5C247.3 18.8 213.9 0 176 0C114.1 0 64 50.1 64 112l0 21.5C26.7 146.6 0 182.2 0 224l0 64 0 32zm80 32l-32 0 0 16 0 32-32 0L0 400l0 32 16 0 32 0 0 32 0 16 32 0 0-16 0-32 32 0 16 0 0-32-16 0-32 0 0-32 0-16zm384 0l-32 0 0 16 0 32-32 0-16 0 0 32 16 0 32 0 0 32 0 16 32 0 0-16 0-32 32 0 16 0 0-32-16 0-32 0 0-32 0-16zM272 400l0-16-32 0 0 16 0 32-32 0-16 0 0 32 16 0 32 0 0 32 0 16 32 0 0-16 0-32 32 0 16 0 0-32-16 0-32 0 0-32z"/></svg>

<svg xmlns="http://www.w3.org/2000/svg" viewBox="0 0 512 512"><!--! Font Awesome Pro 6.5.2 by @fontawesome - https://fontawesome.com License - https://fontawesome.com/license (Commercial License) Copyright 2024 Fonticons, Inc. --><path d="M384 128v32h32c35.3 0 64 28.7 64 64v64H416 96 32V224c0-27.8 17.8-51.6 42.7-60.4L96 156.1V133.5 112c0-44.2 35.8-80 80-80c27 0 50.9 13.4 65.5 34l17.8 25.2 25.9-16.9c10-6.5 22-10.3 34.9-10.3c35.3 0 64 28.7 64 64zM0 320H32 96 416h64 32V288 224c0-53-43-96-96-96c0-53-43-96-96-96c-19.3 0-37.3 5.7-52.4 15.5C247.3 18.8 213.9 0 176 0C114.1 0 64 50.1 64 112v21.5C26.7 146.6 0 182.2 0 224v64 32zm80 32H48v16 32l-32 0H0l0 32H16l32 0v32 16H80V464 432h32 16l0-32H112 80V368 352zm384 0H432v16 32l-32 0H384l0 32h16l32 0v32 16h32V464 432h32 16V400H496 464V368 352zM272 400V384H240v16 32l-32 0H192l0 32h16l32 0v32 16h32V496 464h32 16V432H304 272V400z"/></svg>
